X: 20922
T: Jota Fandango De Estella
R: mazurka
M: 3/4
K: Cmajor
G2c2|:e2edc2|B2c2d2|c6-|c2G2c2|e2edc2|
B2c2d2|d6-|d2d2e2|f2fed2|def2d2|e2edc2|
cde2c2|d2dcB2|Bcd2e2|c6-|c2G2c2:|
e4g2-|g2f2e2|d4c2-|c2 G2c2|e4g2-|
g2f2e2|d6-|d2d2e2|f4a2-|a2g2f2|e4g2-|
g4g2|a2g2f2|e4d2|1 c6-|c2G2c2:|2 c6-|c4c2||
[K:Fmaj]|:f4c2-|c2f4|e6-|e2e2f2|g2f2e2|f2d2e2|
c6-|c2d2e2|f4e2-|e2_e4|d6-|d2e2d2|
c2d2c2|B2c2B2|1 A6-|A4c2:|2 A6-|A6||

